X: 57
M: C|
L: 1/16
K: C
E3DE3C EG3 G4 | c3GA3G c3GA3c |\
E3DE3C DG3G3c | A3cG3c [EC][D3B,3][D2B,2] :|
f2 |\
e3gg3a g3ag3d | e3aa3b a3ba3g |\
e3gd3e c3de3c | A3ag3f ed3d3g |
f3ed3c d3ea4 | g3ee3d c4 A2eg |\
a3eg3d {f}e4d3c | A3cG3c [EC][D3B,3][D2B,2] |]

